src/images/logo.svg

<svg viewBox="0 0 44 44" xmlns="http://www.w3.org/2000/svg"><g fill="none" fill-rule="evenodd" transform=""><circle cx="22" cy="22" fill="#1f1f1d" fill-rule="nonzero" r="22"/><path d="m26.1971452 28.9578179c.4484925 0 1.0464736-.5170044 1.7939612-1.5510289.7474875-1.0340244 1.4887349-2.3670239 2.2237643-3.9990384.7350295-1.6320145 1.1835153-2.4480095 1.3454709-2.4480095s.2429322.0996635.2429322.2989935c0 .6976551-.3612802 1.8064116-1.0838515 3.326303-1.9683839 4.1859303-3.6377477 6.2788641-5.0081416 6.2788641-1.1461476 0-1.9683715-.1993271-2.4666966-.5979871-.2242462-.2242463-.3363677-2.5912547-.3363677-7.1010963l-6.1293673.4484903c-.4734088 1.2956451-.8969787 2.5912708-1.2707225 3.8869159s-.6229025 2.0929532-.7474838 2.3919482c-.2740788.6478225-.9343495.971729-1.9808321.971729-.6976551 0-1.0464774-.2989906-1.0464774-.8969806 0-.5979901.4734017-1.4700458 1.4202193-2.6161934.1744137-.2242462.7474789-1.4326663 1.7192128-3.6252965-.3488276.0249163-.6851919.0373742-1.0091032.0373742-.8720688 0-1.3080967-.3737382-1.3080967-1.1212257 0-.6727388.3488223-1.0091032 1.0464774-1.0091032.0498325 0 .759935.0622897 2.1303289.186871.3737437-.8720688.7723978-1.7316666 1.1959741-2.5788192 3.264029-6.827053 5.506458-10.2405283 6.7273543-10.2405283.9219013 0 1.5572562 4.2730731 1.9060838 12.8193475h.3363677c.1744137 0 .2616193.1245794.2616193.3737419s-.1868691.4609475-.5606129.6353612c.1494976 4.0862653.3488246 6.1293673.5979871 6.1293673zm-8.8576832-6.9515995c2.9152014 0 4.7714343-.0124579 5.5687544-.0373742-.0249162-.39866-.0498321-1.0963046-.0747484-2.0929547-.0249162-.99665-.0498321-1.8624768-.0747484-2.5975062-.0249162-.7350294-.0498321-1.5011927-.0747483-2.2985128-.099665-1.7192213-.2491603-2.5788191-.4484903-2.5788191-.2740788 0-.8346861.809766-1.6818386 2.4293224-.8471526 1.6195563-1.5074234 2.9899296-1.9808321 4.111161-.6478226 1.6195563-1.0589346 2.6411073-1.2333483 3.0646836z" fill="#fff"/></g></svg>

<?xml version="1.0" encoding="UTF-8"?>
<svg viewBox="0 0 44 44" version="1.1" xmlns="http://www.w3.org/2000/svg" xmlns:xlink="http://www.w3.org/1999/xlink">
    <!-- Generator: Sketch 52.6 (67491) - http://www.bohemiancoding.com/sketch -->
    <title>Logo</title>
    <desc>Created with Sketch.</desc>
    <g id="Page-1" stroke="none" stroke-width="1" fill="none" fill-rule="evenodd">
        <g id="Experiment2" transform="translate(-325.000000, -20.000000)">
            <g id="HEADER">
                <g id="Logo" transform="translate(325.000000, 20.000000)">
                    <circle id="Oval-Copy-8" fill="#1F1F1D" fill-rule="nonzero" cx="22" cy="22" r="22"></circle>
                    <path d="M26.1971452,28.9578179 C26.6456377,28.9578179 27.2436188,28.4408135 27.9911064,27.406789 C28.7385939,26.3727646 29.4798413,25.0397651 30.2148707,23.4077506 C30.9499002,21.7757361 31.398386,20.9597411 31.5603416,20.9597411 C31.7222972,20.9597411 31.8032738,21.0594046 31.8032738,21.2587346 C31.8032738,21.9563897 31.4419936,23.0651462 30.7194223,24.5850376 C28.7510384,28.7709679 27.0816746,30.8639017 25.7112807,30.8639017 C24.5651331,30.8639017 23.7429092,30.6645746 23.2445841,30.2659146 C23.0203379,30.0416683 22.9082164,27.6746599 22.9082164,23.1648183 L16.7788491,23.6133086 C16.3054403,24.9089537 15.8818704,26.2045794 15.5081266,27.5002245 C15.1343828,28.7958696 14.8852241,29.5931777 14.7606428,29.8921727 C14.486564,30.5399952 13.8262933,30.8639017 12.7798107,30.8639017 C12.0821556,30.8639017 11.7333333,30.5649111 11.7333333,29.9669211 C11.7333333,29.368931 12.206735,28.4968753 13.1535526,27.3507277 C13.3279663,27.1264815 13.9010315,25.9180614 14.8727654,23.7254312 C14.5239378,23.7503475 14.1875735,23.7628054 13.8636622,23.7628054 C12.9915934,23.7628054 12.5555655,23.3890672 12.5555655,22.6415797 C12.5555655,21.9688409 12.9043878,21.6324765 13.6020429,21.6324765 C13.6518754,21.6324765 14.3619779,21.6947662 15.7323718,21.8193475 C16.1061155,20.9472787 16.5047696,20.0876809 16.9283459,19.2405283 C20.1923749,12.4134753 22.4348039,9 23.6557002,9 C24.5776015,9 25.2129564,13.2730731 25.561784,21.8193475 L25.8981517,21.8193475 C26.0725654,21.8193475 26.159771,21.9439269 26.159771,22.1930894 C26.159771,22.4422519 25.9729019,22.6540369 25.5991581,22.8284506 C25.7486557,26.9147159 25.9479827,28.9578179 26.1971452,28.9578179 Z M17.339462,22.0062184 C20.2546634,22.0062184 22.1108963,21.9937605 22.9082164,21.9688442 C22.8833002,21.5701842 22.8583843,20.8725396 22.833468,19.8758895 C22.8085518,18.8792395 22.7836359,18.0134127 22.7587196,17.2783833 C22.7338034,16.5433539 22.7088875,15.7771906 22.6839713,14.9798705 C22.5843063,13.2606492 22.434811,12.4010514 22.235481,12.4010514 C21.9614022,12.4010514 21.4007949,13.2108174 20.5536424,14.8303738 C19.7064898,16.4499301 19.046219,17.8203034 18.5728103,18.9415348 C17.9249877,20.5610911 17.5138757,21.5826421 17.339462,22.0062184 Z" id="A" fill="#FFFFFF"></path>
                </g>
            </g>
        </g>
    </g>
</svg>
